app/assets/images/galvanize_directions.svg

<?xml version="1.0" encoding="UTF-8" standalone="no"?>
<svg width="197px" height="196px" viewBox="0 0 197 196" version="1.1" xmlns="http://www.w3.org/2000/svg" xmlns:xlink="http://www.w3.org/1999/xlink">
    <!-- Generator: Sketch 3.6 (26304) - http://www.bohemiancoding.com/sketch -->
    <title>Imported Layers</title>
    <desc>Created with Sketch.</desc>
    <defs></defs>
    <g id="Final" stroke="none" stroke-width="1" fill="none" fill-rule="evenodd">
        <g id="v1" transform="translate(-1096.000000, -686.000000)" fill="#9B9B9B">
            <g id="galvanize" transform="translate(980.000000, 44.000000)">
                <g id="Imported-Layers" transform="translate(116.000000, 642.000000)">
                    <path d="M53.8558295,195.993899 L12.0811395,195.993899 C6.61400775,195.993899 0.381782946,189.435144 0.381782946,183.680981 L0.381782946,141.956623 C0.381782946,137.142802 4.10874806,132.849868 8.73672093,131.900374 L8.73672093,60.2131829 C4.10874806,59.2629261 0.381782946,54.9699922 0.381782946,50.1561712 L0.381782946,8.428 C0.381782946,3.45936187 4.97463178,0.248622568 12.0811395,0.248622568 L53.8558295,0.248622568 C59.713907,0.248622568 62.6841783,3.00024903 62.6841783,8.428 L62.6841783,50.1561712 C62.6841783,54.9699922 58.9572132,59.2629261 54.3292403,60.2131829 L54.3292403,131.900374 C58.9572132,132.849868 62.6841783,137.142802 62.6841783,141.956623 L62.6841783,183.680981 C62.6841783,189.733339 59.3817558,195.993899 53.8558295,195.993899 L53.8558295,195.993899 Z M12.0811395,4.06185214 C11.274814,4.06185214 4.1996124,4.18387549 4.1996124,8.428 L4.1996124,50.1561712 C4.1996124,53.7817899 7.66467442,56.594428 10.6456357,56.594428 C11.7001202,56.594428 12.5545504,57.4485914 12.5545504,58.5010428 L12.5545504,133.611751 C12.5545504,134.664965 11.7001202,135.518366 10.6456357,135.518366 C7.66467442,135.518366 4.1996124,138.330241 4.1996124,141.956623 L4.1996124,183.680981 C4.1996124,187.33558 8.69319767,192.180669 12.0811395,192.180669 L53.8558295,192.180669 C57.124655,192.180669 58.8663488,187.244062 58.8663488,183.680981 L58.8663488,141.956623 C58.8663488,138.330241 55.4012868,135.518366 52.4203256,135.518366 C51.3658411,135.518366 50.5114109,134.664965 50.5114109,133.611751 L50.5114109,58.5010428 C50.5114109,57.4485914 51.3658411,56.594428 52.4203256,56.594428 C55.4012868,56.594428 58.8663488,53.7817899 58.8663488,50.1561712 L58.8663488,8.428 C58.8663488,5.53223346 58.0913295,4.06185214 53.8558295,4.06185214 L12.0811395,4.06185214 L12.0811395,4.06185214 Z" id="Fill-1"></path>
                    <path d="M179.189062,187.649027 L73.3076705,187.649027 C72.253186,187.649027 71.3987558,186.795626 71.3987558,185.742412 C71.3987558,184.689198 72.253186,183.835798 73.3076705,183.835798 L179.189062,183.835798 C187.179016,183.835798 192.54612,175.125619 192.54612,166.991237 L192.54612,25.1215564 C192.54612,17.1595331 187.553163,12.4067237 179.189062,12.4067237 L73.3076705,12.4067237 C72.253186,12.4067237 71.3987558,11.5525603 71.3987558,10.5001089 C71.3987558,9.44689494 72.253186,8.59349416 73.3076705,8.59349416 L179.189062,8.59349416 C189.622426,8.59349416 196.36395,15.081323 196.36395,25.1215564 L196.36395,166.991237 C196.36395,176.926226 189.797283,187.649027 179.189062,187.649027" id="Fill-2"></path>
                    <path d="M169.390221,62.4759533 L77.4859031,62.4759533 C76.4314186,62.4759533 75.5769884,61.6225525 75.5769884,60.5693385 L75.5769884,35.5347237 C75.5769884,34.4815097 76.4314186,33.6281089 77.4859031,33.6281089 L169.390221,33.6281089 C170.444705,33.6281089 171.299136,34.4815097 171.299136,35.5347237 L171.299136,60.5693385 C171.299136,61.6225525 170.444705,62.4759533 169.390221,62.4759533 L169.390221,62.4759533 Z M79.3940543,58.6627237 L167.480543,58.6627237 L167.480543,37.4413385 L79.3940543,37.4413385 L79.3940543,58.6627237 Z" id="Fill-3"></path>
                    <path d="M169.390221,162.614412 L77.4859031,162.614412 C76.4314186,162.614412 75.5769884,161.761012 75.5769884,160.707798 L75.5769884,77.2590817 C75.5769884,76.2058677 76.4314186,75.3524669 77.4859031,75.3524669 L169.390221,75.3524669 C170.444705,75.3524669 171.299136,76.2058677 171.299136,77.2590817 L171.299136,160.707798 C171.299136,161.761012 170.444705,162.614412 169.390221,162.614412 L169.390221,162.614412 Z M79.3940543,158.801183 L167.480543,158.801183 L167.480543,79.1656965 L79.3940543,79.1656965 L79.3940543,158.801183 Z" id="Fill-4"></path>
                    <path d="M110.904891,150.097105 C109.850407,150.097105 108.995977,149.243704 108.995977,148.19049 L108.995977,89.7763891 C108.995977,88.7231751 109.850407,87.8697743 110.904891,87.8697743 C111.959376,87.8697743 112.813806,88.7231751 112.813806,89.7763891 L112.813806,148.19049 C112.813806,149.243704 111.959376,150.097105 110.904891,150.097105" id="Fill-5"></path>
                    <path d="M135.969705,150.097105 C134.915221,150.097105 134.060791,149.243704 134.060791,148.19049 L134.060791,89.7763891 C134.060791,88.7231751 134.915221,87.8697743 135.969705,87.8697743 C137.02419,87.8697743 137.87862,88.7231751 137.87862,89.7763891 L137.87862,148.19049 C137.87862,149.243704 137.02419,150.097105 135.969705,150.097105" id="Fill-6"></path>
                    <path d="M156.857814,104.200311 L90.0183101,104.200311 C88.9638256,104.200311 88.1093953,103.346911 88.1093953,102.293696 C88.1093953,101.240482 88.9638256,100.387082 90.0183101,100.387082 L156.857814,100.387082 C157.912298,100.387082 158.766729,101.240482 158.766729,102.293696 C158.766729,103.346911 157.912298,104.200311 156.857814,104.200311" id="Fill-7"></path>
                    <path d="M156.857814,120.890054 L90.0183101,120.890054 C88.9638256,120.890054 88.1093953,120.036654 88.1093953,118.98344 C88.1093953,117.930226 88.9638256,117.076825 90.0183101,117.076825 L156.857814,117.076825 C157.912298,117.076825 158.766729,117.930226 158.766729,118.98344 C158.766729,120.036654 157.912298,120.890054 156.857814,120.890054" id="Fill-8"></path>
                    <path d="M156.857814,137.579798 L90.0183101,137.579798 C88.9638256,137.579798 88.1093953,136.726397 88.1093953,135.673183 C88.1093953,134.619969 88.9638256,133.766568 90.0183101,133.766568 L156.857814,133.766568 C157.912298,133.766568 158.766729,134.619969 158.766729,135.673183 C158.766729,136.726397 157.912298,137.579798 156.857814,137.579798" id="Fill-9"></path>
                </g>
            </g>
        </g>
    </g>
</svg>

<svg width="197" height="196" viewBox="0 0 197 196" xmlns="http://www.w3.org/2000/svg"><title>Imported Layers</title><g fill="#9B9B9B" fill-rule="evenodd"><path d="M53.856 195.994H12.08c-5.466 0-11.698-6.56-11.698-12.313v-41.723c0-4.814 3.727-9.107 8.355-10.057V60.213C4.11 59.263.382 54.97.382 50.156V8.428c0-4.97 4.593-8.18 11.7-8.18h41.774c5.858 0 8.828 2.752 8.828 8.18v41.728c0 4.814-3.727 9.107-8.355 10.057V131.9c4.627.95 8.354 5.243 8.354 10.057v41.724c0 6.053-3.302 12.314-8.828 12.314zM12.08 4.062c-.805 0-7.88.122-7.88 4.366v41.728c0 3.626 3.465 6.438 6.446 6.438 1.054 0 1.91.855 1.91 1.907v75.112a1.907 1.907 0 0 1-1.91 1.906c-2.98 0-6.446 2.812-6.446 6.44v41.723c0 3.656 4.493 8.5 7.88 8.5h41.776c3.27 0 5.01-4.936 5.01-8.5v-41.723c0-3.627-3.465-6.44-6.446-6.44a1.907 1.907 0 0 1-1.91-1.905v-75.11c0-1.053.856-1.908 1.91-1.908 2.98 0 6.446-2.812 6.446-6.438V8.428c0-2.896-.775-4.366-5.01-4.366H12.08zM179.19 187.65H73.307a1.907 1.907 0 1 1 0-3.814h105.88c7.99 0 13.358-8.71 13.358-16.845V25.123c0-7.962-4.993-12.715-13.357-12.715H73.307a1.907 1.907 0 0 1 0-3.813h105.88c10.434 0 17.176 6.487 17.176 16.528v141.87c0 9.934-6.567 20.657-17.175 20.657"/><path d="M169.39 62.476H77.486a1.907 1.907 0 0 1-1.91-1.907V35.534c0-1.053.855-1.907 1.91-1.907h91.904c1.055 0 1.91.854 1.91 1.907V60.57a1.907 1.907 0 0 1-1.91 1.906zm-89.996-3.813h88.087V37.44H79.395v21.223zM169.39 162.614H77.486a1.907 1.907 0 0 1-1.91-1.906v-83.45c0-1.052.855-1.906 1.91-1.906h91.904c1.055 0 1.91.854 1.91 1.907v83.448a1.907 1.907 0 0 1-1.91 1.906zM79.394 158.8h88.087V79.167H79.395V158.8z"/><path d="M110.905 150.097a1.907 1.907 0 0 1-1.91-1.907V89.776c0-1.053.855-1.906 1.91-1.906 1.054 0 1.91.853 1.91 1.906v58.414a1.907 1.907 0 0 1-1.91 1.907M135.97 150.097a1.907 1.907 0 0 1-1.91-1.907V89.776c0-1.053.855-1.906 1.91-1.906 1.054 0 1.91.853 1.91 1.906v58.414a1.907 1.907 0 0 1-1.91 1.907"/><path d="M156.858 104.2h-66.84a1.907 1.907 0 1 1 0-3.813h66.84a1.907 1.907 0 1 1 0 3.813M156.858 120.89h-66.84a1.907 1.907 0 1 1 0-3.813h66.84a1.907 1.907 0 1 1 0 3.813M156.858 137.58h-66.84a1.907 1.907 0 1 1 0-3.813h66.84a1.907 1.907 0 1 1 0 3.813"/></g></svg>
